other/pixilart.svg

<?xml version="1.0" encoding="UTF-8"?><svg id="a" xmlns="http://www.w3.org/2000/svg" viewBox="0 0 48 48"><defs><style>.b{fill:none;stroke:#fff;stroke-linecap:round;stroke-linejoin:round;}</style></defs><path class="b" d="m21.4541,42.5h5.3413v-6.15h5.1417v-6.19h5.5011v-6.4595h5.0618v-12.0305h-5.0618v-6.17h-10.6427v6.17h-5.3413v-6.17h-10.6328v6.17h-5.3214v12.0305h5.3314v6.4695h5.3214v6.19h5.2914l.01,6.14Z"/></svg>

<svg xmlns="http://www.w3.org/2000/svg" width="48" height="48" viewBox="0 0 48 48"><path fill="none" stroke="#fff" stroke-width="1" stroke-linecap="round" stroke-linejoin="round" d="M21.45 42.53h5.35v-6.16h5.15v-6.2h5.51V23.7h5.07V11.65h-5.07V5.47H26.8v6.18h-5.35V5.47H10.8v6.18H5.47V23.7h5.34v6.48h5.33v6.2h5.3z"/></svg>
